X:1
T:Title
%%score { ( 1 3 4 ) | ( 2 5 ) }
L:1/8
Q:1/4=100
M:4/4
K:G
V:1 treble nm="Grand Piano"
V:3 treble 
V:4 treble 
V:2 bass 
V:5 bass 
V:1
 B>_B =B>F A>G B,>F | z2 D4[K:bass] z2 | D>[K:treble]E F>G [B,A]>G [D^Gc]>B | A6 z2 | %4
w: Adam~Geibel * * * * * * *||||
 A>^G A>G B>A F>d | [Ee]2 [Dd]4 G,2 | [A,DFA]2 [A,DFA]2 [D^GB]>B [E=G^c]>A | F2 z2 z4 | %8
w: ||||
 [GBe]2 [GBd]2 [DGB]2 [G,B,G]2 | [B,D]>^C [B,D]>^D [=CE]>c [B,=DB]2 | B>A ^G>A B>A D2 | %11
w: |||
 A>G F>G A>G D2 | [GBe]2 [GBd]2 [DGB]2 [G,B,G]2 | %13
w: ||
[M:9/8] [G,B,DG]2 [CFA]- [CFA]/[D=FB]<[EGc][FBd]/ [Ece]3 | %14
w: |
[M:4/4] [Ge]2 [Ge]2 [Gd]>[B,GB] [B,G]>[EAc] | [DGB]2 [CFA]2 [G,B,DG]4 |] %16
w: ||
V:2
 G,,2 [D,G,B,]2 G,,2 [D,G,]2 | G,,2 (3[D,G,B,][D,G,][D,G,] [D,G,]2 [D,G,]2 | %2
 G,,2 [D,G,B,]2 [G,,D,G,]2 [E,,E,]2 | A,,2 (3[E,A,][E,A,][E,A,] [E,A,]2 [E,A,]2 | %4
 D,2 [F,A,]2 C,2 z z/ D/ | B,,2 [D,G,]2 _B,,2 D,2 | %6
 z z/ ^G/ z z/[K:treble] _B/[K:bass] [E,,E,]2 [A,,A,]2 | [D,A,D]>D, D,>D, D,2 D,,2 | %8
 G,,2 [D,G,B,]2 G,,2 D,2 | [G,,D,G,]2 [G,,D,G,]2 [G,,E,G,]2 [G,,D,G,]2 | D,,2 [D,F,C]2 [D,F,C]4 | %11
 G,,2 [D,G,B,]2 [D,G,B,]4 | G,,2 [D,G,B,]2 G,,2 D,2 | %13
[M:9/8] z z/ G/[G,,G,]- [G,,G,] [C,G,]2 [C,G,]3 |[M:4/4] [C,C]2 [C,_B,]2 [D,=B,]>D, E,>C, | %15
 D,2 D,2 G,,4 |] %16
V:3
 x8 | E2 (3z[K:bass] B,B, z2 B,2 | x3/2[K:treble] x13/2 | z2 (3CCC C2 C2 | x8 | x8 | x8 | %7
 d->[A,DFd-] [B,DGd-]>[B,DGd-] [CDFAd]2 z2 | x8 | x8 | x8 | x8 | x8 |[M:9/8] x9 |[M:4/4] x8 | x8 |] %16
V:4
 x8 | z4[K:bass] B,2 z2 | x3/2[K:treble] x13/2 | x8 | x8 | x8 | x8 | x8 | x8 | x8 | x8 | x8 | x8 | %13
[M:9/8] x9 |[M:4/4] x8 | x8 |] %16
V:5
 x8 | x8 | x8 | x8 | z4 z2 [D,F,A,]2 | x8 | A,,2 A,,2[K:treble][K:bass] z4 | x8 | x8 | x8 | x8 | %11
 x8 | x8 |[M:9/8] .G,,3 z3 z3 |[M:4/4] x8 | x8 |] %16

